Newaita-dark/actions/16/edit-copy.svg

<svg height="16" viewBox="0 0 16 16" width="16" xmlns="http://www.w3.org/2000/svg"><g fill="#e0e0e0"><path d="m7.9375 7.40625c-.363281 0-.65625.292969-.65625.65625v5.953125c0 .363281.292969.660156.65625.660156h4.632812c.363282 0 .65625-.296875.65625-.660156v-4.628906c0-.175781-.070312-.34375-.191406-.464844l-1.324218-1.324219c-.121094-.125-.289063-.191406-.464844-.191406zm.660156 1.316406h2.375l.9375.9375v3.699219h-3.3125zm0 0"/><path d="m3.96875 1.449219c-.734375 0-1.324219.589843-1.324219 1.320312v10.585938c0 .734375.589844 1.324219 1.324219 1.324219h1.984375v-1.324219h-1.324219c-.363281 0-.660156-.296875-.660156-.660157v-9.261718c0-.367188.296875-.664063.660156-.664063h5.019532l2.261718 2.257813v1.050781h1.316406v-1.324219c0-.171875-.070312-.339844-.191406-.464844l-2.648437-2.644531c-.121094-.125-.289063-.191406-.464844-.191406h-2.644531v-.003906zm0 0"/></g></svg>

<svg xmlns="http://www.w3.org/2000/svg" xmlns:xlink="http://www.w3.org/1999/xlink" width="16px" height="16px" viewBox="0 0 16 16" version="1.1">
<g id="surface1">
     <defs>
  <style id="current-color-scheme" type="text/css">
   .ColorScheme-Text { color:#eeeeee; } .ColorScheme-Highlight { color:#424242; }
  </style>
 </defs>
<path style="fill:currentColor" class="ColorScheme-Text" d="M 7.9375 7.40625 C 7.574219 7.40625 7.28125 7.699219 7.28125 8.0625 L 7.28125 14.015625 C 7.28125 14.378906 7.574219 14.675781 7.9375 14.675781 L 12.570312 14.675781 C 12.933594 14.675781 13.226562 14.378906 13.226562 14.015625 L 13.226562 9.386719 C 13.226562 9.210938 13.15625 9.042969 13.035156 8.921875 L 11.710938 7.597656 C 11.589844 7.472656 11.421875 7.40625 11.246094 7.40625 Z M 8.597656 8.722656 L 10.972656 8.722656 L 11.910156 9.660156 L 11.910156 13.359375 L 8.597656 13.359375 Z M 8.597656 8.722656 "/>
     <defs>
  <style id="current-color-scheme" type="text/css">
   .ColorScheme-Text { color:#eeeeee; } .ColorScheme-Highlight { color:#424242; }
  </style>
 </defs>
<path style="fill:currentColor" class="ColorScheme-Text" d="M 3.96875 1.449219 C 3.234375 1.449219 2.644531 2.039062 2.644531 2.769531 L 2.644531 13.355469 C 2.644531 14.089844 3.234375 14.679688 3.96875 14.679688 L 5.953125 14.679688 L 5.953125 13.355469 L 4.628906 13.355469 C 4.265625 13.355469 3.96875 13.058594 3.96875 12.695312 L 3.96875 3.433594 C 3.96875 3.066406 4.265625 2.769531 4.628906 2.769531 L 9.648438 2.769531 L 11.910156 5.027344 L 11.910156 6.078125 L 13.226562 6.078125 L 13.226562 4.753906 C 13.226562 4.582031 13.15625 4.414062 13.035156 4.289062 L 10.386719 1.644531 C 10.265625 1.519531 10.097656 1.453125 9.921875 1.453125 L 7.277344 1.453125 L 7.277344 1.449219 Z M 3.96875 1.449219 "/>
</g>
</svg>
